!!!COM: Scarlatti, Domenico
!!!CDT: 1685-1757
!!!OTL: Sonata in A major, L.341, K.320
!!!SCT: K. 320
!!!SCT: L. 341
!!!OMD: Allegro ([half]=116)
**kern	**kern	**dynam
*staff2	*staff1	*staff1/2
*Icemba	*Icemba	*
*I"L.341 (K.320)	*I"L.341 (K.320)	*
*>[A,A,B,B]	*>[A,A,B,B]	*>[A,A,B,B]
*>norep[A,B]	*>norep[A,B]	*>norep[A,B]
*>A	*>A	*>A
*clefF4	*clefG2	*
*k[f#c#g#]	*k[f#c#g#]	*
*A:	*A:	*
*M2/2	*M2/2	*
*met(c|)	*met(c|)	*
*MM232	*MM232	*
=1-	=1-	=1-
1r	(4.aaM	f
.	8ee)	.
.	(4aaM	.
.	4ee)	.
=2	=2	=2
1r	(8aaL	.
.	8ee	.
.	8cc#	.
.	8aJ	.
.	8eL	.
.	8a	.
.	8cc#	.
.	8eeJ	.
=3	=3	=3
1r	8ddL	.
.	8b	.
.	8g#	.
.	8eJ)	.
.	(8eL	.
.	8g#	.
.	8b	.
.	8ddJ	.
!!LO:LB:g=z
=4	=4	=4
(4.aM	4cc#	.
.	4ee)	.
8e)	.	.
(4.aM	(4cc#	.
.	4ee)	.
8e)	.	.
=5	=5	=5
(8aL	2cc#	.
8e	.	.
8c#	.	.
8AJ	.	.
8EL	4r	.
8A	.	.
8c#	4ee'	.
8eJ	.	.
=6	=6	=6
8dL	2b	.
8B	.	.
8G#	.	.
8EJ)	.	.
(8EL	4r	.
8G#	.	.
8B	4dd'	.
8dJ	.	.
=7	=7	=7
4c#)	8r	.
.	(8eeL	.
(4c#	8a	.
.	8eeJ	.
4d	8aL	.
.	8ff#	.
4B	8b	.
.	8gg#J	.
!!LO:LB:g=z
=8	=8	=8
4A)	8cc#L	.
.	8aa)	.
(4c#	(8a	.
.	8eeJ	.
4d	8aL	.
.	8ff#	.
4B)	8b	.
.	8gg#J	.
=9	=9	=9
8r	4aa')	.
(8eL	.	.
8A	(2ee	.
8eJ	.	.
8AL	.	.
8f#	.	.
8B	4dd	.
8g#J	.	.
=10	=10	=10
8c#L	4cc#)	.
8a)	.	.
(8A	(2ee	.
8eJ	.	.
8AL	.	.
8f#	.	.
8B	4dd	.
8g#J	.	.
=11	=11	=11
2A)	8cc#L)	.
.	(8a	.
.	8cc#	.
.	8eeJ	.
4r	8aaL	.
.	8ee	.
4a'	8aa	.
.	8ccc#J	.
!!LO:LB:g=z
=12	=12	=12
2g#	8bbL	.
.	8gg#	.
.	8ee	.
.	8bJ	.
4r	8g#L	.
.	8b	.
4e'	8gg#	.
.	8bbJ	.
=13	=13	=13
2f#'	8aaL	.
.	8ff#	.
.	8dd#	.
.	8aJ	.
4r	8f#L	.
.	8a	.
4d#'	8ff#	.
.	8aaJ	.
=14	=14	=14
(8EL	2gg#)	>
8e	.	.
8B	.	.
8eJ	.	]
8G#L	4r	.
8B	.	.
8E	4bb'	mf
8eJ	.	.
=15	=15	=15
8AL	4cc#'	.
8c#	.	.
8F#	(2aa	.
8AJ	.	.
8D#L	.	.
8F#	.	.
8BB	8gg#L	.
8D#J	8ff#J	.
!!LO:LB:g=z
=16	=16	=16
8EL)	2gg#)	.
(8e	.	.
8B	.	.
8eJ	.	.
8G#L	4r	.
8B	.	.
8E	4bb'	p
8eJ	.	.
=17	=17	=17
8AL	4cc#'	.
8c#	.	.
8F#	(2aa	.
8AJ	.	.
8D#L>	.	.
8F#	.	.
8BB	8gg#L	.
8D#J	8ff#J	.
=18	=18	=18
2E)	8gg#L	<
.	8bb	.
.	8dd#	.
.	8ff#J	.
4r	8eeL	.
.	8gg#	.
4G#'	8b	.
.	8dd#J	.
=19	=19	=19
(2A	8cc#L	.
.	8ee	.
.	8a	.
.	8cc#J	.
2AA	8f#L	.
.	8a	.
.	8d#	.
.	8f#J	.
!!LO:LB:g=z
=20	=20	=20
2BB)	2B)	f
(8BL	2r	.
8A	.	.
8Gn	.	.
8F#J)	.	.
=21	=21	=21
(2EE	8r	.
.	(8bbL	.
.	8ggn	.
.	8eeJ	.
2E)	8bL	.
.	8gn	.
.	8e	.
.	8bJ	.
=22	=22	=22
*ped	*	*
(8AAL>	2ccn)	.
8Cn	.	.
8E	.	.
8AJ	.	.
*clefG2	*	*
8cnL	2r	.
8e	.	.
8a	.	.
8ccnJ)	.	.
*clefF4	*	*
!!LO:LB:g=z
=23	=23	=23
*Xped	*	*
(2d#	8r	.
.	(8cccnL	.
.	8aa	.
.	8ff#J	.
2B	8dd#L	.
.	8b	.
.	8ff#	.
.	8aaJ	.
=24	=24	=24
2E)	8ggnL	.
.	8bb	.
.	8gg	.
.	8eeJ	.
2r	8bL	.
.	8gn	.
.	8e	.
.	8bJ	.
=25	=25	=25
*ped	*	*
(8AAL	2ccn)	.
8Cn	.	.
8E	.	.
8AJ	.	.
*clefG2	*	*
8cnL	2r	.
8e	.	.
8a	.	.
8ccnJ)	.	.
*clefF4	*	*
=26	=26	=26
*Xped	*	*
(2d#	8r	.
.	(8cccnL	.
.	8aa	.
.	8ff#J	.
2B	8dd#L	.
.	8b)	.
.	(8ff#	.
.	8aaJ	.
!!LO:LB:g=z
=27	=27	=27
2E)	8ggnL	.
.	8bb	.
.	8dd#	.
.	8ff#J	.
4r	8eeL	.
.	8gg	.
4Gn'	8b	.
.	8ddnJ	.
=28	=28	=28
(<2A	8ccnL	.
.	8ee	.
.	8a	.
.	8ccJ	.
2AA	8f#L	.
.	8a	.
.	8d#	.
.	8f#J	.
=29	=29	=29
4.BB)	4.B)	.
(8B	(8d# 8b	f
8BBL	4e') 4ccn'	.
8A	.	.
8BB	4f#' 4dd#'	.
8AJ	.	.
=30	=30	=30
8BBL	4gn' 4ee'	.
8Gn	.	.
8BB	4a' 4ff#'	.
8F#J	.	.
.	(<8aaqq	.
4BB')	4b (4ggn)	sf
4BB' 4A#'	8ff#L	.
.	8eeJ	.
!!LO:LB:g=z
=31	=31	=31
4.BB 4.B	4.dd#)	.
(8B	(8d# 8b	p
8BBL	4e') 4ccn'	<
8An	.	.
8BB	4f#' 4dd#'	.
8AJ	.	.
=32	=32	=32
8BBL	4gn' 4ee'	.
8Gn	.	.
8BB	4a' 4ff#'	.
8F#J	.	.
.	(<8aaqq	.
4BB')	4b (4ggn)	sf
4BB' 4A#'	8ff#L	.
.	8eeJ	.
=33	=33	=33
4.BB 4.B	4dd#)	f
.	(4.bb	.
8BB (8B	.	.
4C#' 4An')	.	.
.	8aaL	.
4D#' 4B'	8ggn	.
.	8ff#J	.
=34	=34	=34
4E' 4cn'	8eeL	.
.	8ggn	.
4F#' 4d#'	8aa	.
.	8dd#J	.
4Gn' 4e'	8bbL	.
.	8gg	.
4AA' 4A'	8ff#	.
.	8eeJ	.
!!LO:LB:g=z
=35	=35	=35
4.BB 4.B	4dd#)	.
.	(4.bb	.
8BB (8B	.	.
4C#' 4An')	.	.
.	8aaL	.
4D#' 4B'	8ggn	.
.	8ff#J	.
=36	=36	=36
4E' 4cn'	8eeL	.
.	8ggn	.
4F#' 4d#'	8aa	.
.	8dd#J	.
4Gn' 4e'	8bbL	.
.	8gg	.
4AA' 4A'	8ff#	.
.	8eeJ	.
=37	=37	=37
4.BB 4.B	8dd#L	.
.	8ff#J	.
.	4.a)	.
(8c#X	.	.
8d#L	.	.
8f#	(8cc#XL>	.
8B	8b	.
8d#J	8aJ	.
=38	=38	=38
8EL	4.g#X)	.
8e	.	.
8G#	.	.
8eJ	(8bb	.
8AL	[2ff#)	.
8g#	.	.
8f#	.	.
8eJ	.	.
!!LO:LB:g=z
=39	=39	=39
8d#L	8ff#L]	p
8B	(8aa	.
8G#	8gg#	<
8eJ	8bbJ	.
8AL	[2ff#)	.
8g#	.	.
8f#	.	.
8eJ	.	.
=40	=40	=40
8d#L	8ff#L]	.
8B	(8aa	.
8e	8gg#	.
8AJ	8ff#J	.
4BB')	8gg#L	.
.	8bb	.
(4B	8ee	.
.	8dd#J	.
=41	=41	=41
4c#	8ee')	f
.	(4ccc#	.
4A	.	.
.	4aa	.
4B	.	.
.	4ff#	.
4A	.	.
.	8dd#	.
=42	=42	=42
4G#)	8ee')	.
.	(4ccc#	.
(4A	.	.
.	4aa	.
4AA	.	.
.	4ff#	.
4A)	.	.
.	8dd#	.
!!LO:LB:g=z
=43	=43	=43
4r	8gg#L	.
.	8ee	.
4GG#'\ 4G#'\	8b	.
.	8g#J	.
4AA' 4A'	8f#L	.
.	8e)	.
4BB' 4B'	(8e	.
.	8d#J)	.
=44	=44	=44
4r	(8gg#L	.
.	8ee	.
4GG#'\ 4G#'\	8b	.
.	8g#J	.
4AA' 4A'	8f#L	.
.	8e)	.
4BB' 4B'	(8e	.
.	8d#J)	.
=45	=45	=45
*	*^	*
4r	(8bbL	2ryy	.
.	8gg#	.	.
4GG#'\ 4G#'\	8ee)	.	.
.	(8g# (8bJ	.	.
4AA' 4A'	4a	8f#	.
.	.	4e	.
4BB' 4B'	8g#L	.	.
.	8f#J	8d#	.
*	*v	*v	*
=46	=46	=46
1EE 1E	1e))	.
!!LO:LB:g=z
=47:|!|:	=47:|!|:	=47:|!|:
*>B	*>B	*>B
!	!	!LO:DY:b
8r	1ee	f
!	!	!LO:DY:a=2
(8eL	.	p
8g#	.	.
8f#J	.	.
8eL	.	.
8d	.	.
8c#	.	.
8BJ	.	.
=48	=48	=48
8A#L	2ee	<
8Gn	.	.
8F#	.	.
8EJ	.	.
8DL	2ee	.
8C#	.	.
8BB	.	.
8AA#J	.	[
=49	=49	=49
1BB)	(8ddL	mf
.	8ff#	.
.	8b	.
.	8cc#J	.
.	8ddL	.
.	8bb	.
.	8b	.
.	8cc#J	.
=50	=50	=50
8r	1dd)	.
(8dL	.	p
8f#	.	.
8eJ	.	.
8dL	.	.
8c#	.	.
8B	.	.
8AJ	.	.
!!LO:LB:g=z
=51	=51	=51
8G#XL	2dd	<
8F#	.	.
8E	.	.
8DJ	.	.
8CnL	2dd	.
8BB	.	.
8AA	.	.
8GG#XJ	.	[[
=52	=52	=52
1AA)	(8ccnL	mf
.	8ee	.
.	8a	.
.	8bJ	.
.	8ccL	.
.	8aa	.
.	8a	.
.	8bJ	.
=53	=53	=53
8r	1ccn)	p
(8cnL	.	.
8e	.	.
8dJ	.	.
8cL	.	.
8B	.	.
8A	.	.
8GnJ	.	.
=54	=54	=54
8F#L	2ccn	.
8E	.	.
8D	.	.
8CnJ	.	.
8BBL	2cc	<
8AA	.	.
8GGn	.	.
8FF#J	.	[[
!!LO:LB:g=z
=55	=55	=55
1GGn)	(8bL<	.
.	8dd	.<
.	8gn	.
.	8aJ	.
.	8bL	.
.	8ggn)	.
.	(8g	.
.	8aJ	.
=56	=56	=56
(4gn	8bL	.
.	8ccn	.
8fnL	8dd	.
8eJ	8eeJ	.
4d	8ffnL	.
.	8gg#X	.
8cnL	8aa	.
8BJ	8bbJ	.
=57	=57	=57
4A')	8cccnL	f
.	8ffn	.
4Gn' 4e'	8ee	.
.	8bbJ	.
4Fn' 4d'	8aaL	.
.	8dd	.
4E' 4cn'	8ccn	.
.	8ggnJ	.
=58	=58	=58
4D' 4B'	8ffnL	.
.	8b	.
4Cn' 4A'	8a	.
.	8eeJ	.
4BB' 4G#X'	8ddL	.
.	8g#X	.
4AA' 4A'	8a	.
.	8ccnJ	.
!!LO:LB:g=z
=59	=59	=59
4.E^	4.b)	.
(8e	8g#X (8ee	f
8EL	4a' 4ffn')	.
8d	.	.
8E	4b' 4gg#X'	.
8dJ	.	.
=60	=60	=60
8EL	4ccn' 4aa'	.
8cn	.	.
8E	4dd' 4bb'	.
8BJ	.	.
.	(<8dddqq	.
4E')	4ee (4cccn)	sf
4E~ 4d#	8bbL	.
.	8aaJ	.
=61	=61	=61
4.E^ 4.e^	4.gg#)	.
(8e	8g# (8ee	p
8EL	4a' 4ffn')	<
8dn	.	.
8E	4b' 4gg#'	.
8dJ	.	.
=62	=62	=62
8EL	4ccn' 4aa'	.
8cn	.	.
8E	4dd' 4bb'	.
8BJ	.	.
.	(<8dddqq	.
4E')	4ee (4cccn)	sf
4E' 4d#'	8bbL	.
.	8aaJ	.
!!LO:LB:g=z
=63	=63	=63
4.E^ 4.e^	4gg#)	f
.	(4.ee^	.
(8EE 8E	.	.
4FF#') 4Dn'	.	.
.	8ddL	.
4GG#' 4E'	8ccn	.
.	8bJ	.
=64	=64	=64
4AA' 4Fn'	8aL	.
.	8ccn	.
4BB'/ 4G#'/	8dd	.
.	8g#J	.
4Cn' 4A'	8eeL	.
.	8cc	.
4D'	8b	.
.	8aJ	.
=65	=65	=65
4.E^	4g#')	.
.	(4.ee^	.
(8EE 8E	.	.
4FF#') 4D'	.	.
.	8ddL	.
4GG#' 4E'	8ccn	.
.	8bJ	.
=66	=66	=66
4AA' 4Fn'	8aL	.
.	8ccn	.
4BB'/ 4G#'/	8dd	.
.	8g#J	.
4Cn' 4A'	8eeL	.
.	8cc	.
4D'	8b	.
.	8aJ	.
!!LO:LB:g=z
=67	=67	=67
(2E	8g#L)	.
.	(8bb	.
.	8gg#	.
.	8ffnJ	.
2EE	8ddL	.
.	8b	.
.	8g#	.
.	8ddJ	.
=68	=68	=68
1AA)	8ccnL	.
.	8aa	.
.	8ee	.
.	8ccJ	.
.	8aL	.
.	8e	.
.	8cn	.
.	8eJ	.
=69	=69	=69
*ped	*	*
(8DDL	1fn)	.
8FFn	.	.
8AA	.	.
8DJ	.	.
8FnL	.	.
8A	.	.
8d	.	.
8fnJ)	.	.
=70	=70	=70
*Xped	*	*
(2G#	8r	.
.	(8bbL	.
.	8gg#	.
.	8ffnJ	.
2E	8ddL	.
.	8b	.
.	8g#	.
.	8ddJ	.
!!LO:LB:g=z
=71	=71	=71
2A	8ccnL	.
.	8aa	.
.	8ee	.
.	8ccJ	.
2AA)	8aL	.
.	8e	.
.	8cn	.
.	8eJ	.
=72	=72	=72
*ped	*	*
(8DDL	1fn)	.
8FFn	.	.
8AA	.	.
8DJ	.	.
8FnL	.	.
8A	.	.
8d	.	.
8fnJ)	.	.
=73	=73	=73
*Xped	*	*
(2G#	8r	.
.	(8bbL	.
.	8gg#	.
.	8ffnJ	.
2E	8ddL	.
.	8b	.
.	8g#	.
.	8ddJ	.
=74	=74	=74
4AA')	8cc#XL	.
.	8ee)	.
4C#X'	(8e	p
.	8g#J	<
4D'	8f#L	.
.	8a	.
4E'	8g#	.
.	8bJ	.
!!LO:LB:g=z
=75	=75	=75
4F#'	8aL	.
.	8cc#X	.
4G#'	8b	.
.	8ddJ	.
4A'	8cc#L	.
.	8ee	.
4B'	8dd	.
.	8ff#J	.
=76	=76	=76
(4C#	8eeL	.
.	8aa	.
4D	8ff#	.
.	8ddJ	.
4E')	8cc#L	.
.	8a	.
4D'	8g#	.
.	8bJ	.
=77	=77	=77
(8C#L	4a')	f
8A	.	.
8C#	4ee'	.
8AJ	.	.
8DL	([2bMM	.
8c#	.	.
8B	.	.
8AJ	.	.
!!LO:LB:g=z
=78	=78	=78
8G#L	8bL]	.
8E	8dd	.
8A	8cc#	.
8C#J	8eeJ)	.
8DL	([2bMM	.
8c#	.	.
8B	.	.
8AJ	.	.
=79	=79	=79
8G#L	8bL]	.
8E	8dd	.
8A	8cc#	.
8DJ	8bJ	.
4E')	8cc#')	.
.	(4aa	.
(4D	.	.
.	8gg#	.
=80	=80	=80
4C#	8aaL	.
.	8ee	.
4D	8ff#	.
.	[8aJ)	.
4E	8a]	.
.	(4ee	.
4D	.	.
.	8g#	.
!!LO:LB:g=z
=81	=81	=81
4C#	8aL	.
.	8aa	.
4D	8ff#	.
.	[8ddJ	.
4E	8dd]	.
.	4b	.
4D	.	.
.	8g#	.
=82	=82	=82
4C#	8a'L)	.
.	(8aa	.
4D	8ff#	.
.	[8ddJ	.
4E	8dd]	.
.	4b	.
4D	.	.
.	8g#)	.
=83	=83	=83
4C#	(8aaL	.
.	8ee	.
4D	8ff#)	.
.	([<8a^J	.
4E')	8aL]	.
.	8b	.
4EE'	8a	.
.	8g#J	.
=84	=84	=84
1AA^	1a)MM<	.
==:|!	==:|!	==:|!
*-	*-	*-
!!!RDF**kern: > = above
!!!RDF**kern: < = below
!!!verovio: beamFrenchStyle 1
!!!URL-vhv: https://verovio.humdrum.org/?file=scarlatti/sonatas/L341K320.krn
!!!URL-pdf: https://github.com/craigsapp/scarlatti-keyboard-sonatas/blob/master/reference-edition/L341K320.pdf (reference ed.) Alessandro Longo (1864-1945) Milan: G. Ricordi & C.
!!!URL-pdf: https://imslp.eu/files/imglnks/euimg/6/62/IMSLP345939-PMLP506809-Scarlatti,_Domenico-Sonates_Heugel_32.485_Volume_7.pdf#page=62 (urtext) Kenneth Gilbert (1931-2020), Le Pupitre, Vol.37, Paris: Heugel, 1975. Plate H. 32,485.
!!!URL-youtube: https://www.youtube.com/watch?v=RYYyIGDSZf0 Scott Roos, harpsichord
!!!URL-youtube: https://www.youtube.com/watch?v=IKPErVamwVU Aurélien Delage, harpsichord
!!!URL-youtube: https://www.youtube.com/watch?v=mfL3v53lmvk Konstantin Scherbakov, piano
!!!PTL: Domenico Scarlatti: Opere complete per clavicembalo
!!!PED: Longo, Alessandro
!!!PPR: Ricordi
!!!PPP: Milan
!!!PDT: 1906-1913
!!!YEC: 2021 Craig Stuart Sapp
!!!YEM: Licence: (CC BY-NC-SA 4.0) https://creativecommons.org/licenses/by-nc-sa/4.0
!!!ENC: Craig Stuart Sapp
!!!END: 2004/10/30
!!!EED: Craig Stuart Sapp
!!!EEV: 2021/06/16
